icons/folder-shield-2-line.svg

<svg xmlns="http://www.w3.org/2000/svg" width="24" height="24" fill="none"><g clip-path="url(#a)"><g><path fill="#121212" d="M22 9H20V7H11.586L9.586 5H4V19H11.447C11.8142 19.8026 12.3886 20.4929 13.111 21H3C2.73478 21 2.48043 20.8946 2.29289 20.7071C2.10536 20.5196 2 20.2652 2 20V4C2 3.73478 2.10536 3.48043 2.29289 3.29289C2.48043 3.10536 2.73478 3 3 3H10.414L12.414 5H21C21.2652 5 21.5196 5.10536 21.7071 5.29289C21.8946 5.48043 22 5.73478 22 6V9ZM13 11H22V16.949C22 17.939 21.499 18.865 20.664 19.414L17.5 21.498L14.336 19.414C13.9266 19.1461 13.5902 18.7807 13.357 18.3506C13.1238 17.9205 13.0012 17.4392 13 16.95V11ZM15 16.949C15 17.265 15.162 17.563 15.436 17.744L17.5 19.104L19.564 17.744C19.6969 17.6581 19.8064 17.5404 19.8825 17.4016C19.9586 17.2628 19.999 17.1073 20 16.949V13H15V16.949Z"/></g></g><defs><clipPath id="a"><rect width="24" height="24" fill="white"/></clipPath></defs></svg>

<svg width="24" height="24" fill="none" xmlns="http://www.w3.org/2000/svg"><g clip-path="url(#a)"><path d="M22 9h-2V7h-8.414l-2-2H4v14h7.447a4.97 4.97 0 0 0 1.664 2H3a1 1 0 0 1-1-1V4a1 1 0 0 1 1-1h7.414l2 2H21a1 1 0 0 1 1 1v3Zm-9 2h9v5.949c0 .99-.501 1.916-1.336 2.465L17.5 21.498l-3.164-2.084A2.953 2.953 0 0 1 13 16.95V11Zm2 5.949c0 .316.162.614.436.795l2.064 1.36 2.064-1.36a.954.954 0 0 0 .436-.795V13h-5v3.949Z" /></g><defs><clipPath id="a"><path fill="#fff" d="M0 0h24v24H0z"/></clipPath></defs></svg>
